X:1
T:7 Lieder
T:Like to the Damask Rose
T:7 Lieder
T:Edward Elgar
T:1. Like to the Damask Rose Gleich wie der roten Rose Pracht 
T:Simon Wastell German Lyrics by Ed. Sachs 
T:Creative Commons copyright waiver (CC0 1.0 Universal)
T:Creative Commons copyright waiver (CC0 1.0 Universal)
T:Creative Commons copyright waiver (CC0 1.0 Universal)
T:Creative Commons copyright waiver (CC0 1.0 Universal)
T:Creative Commons copyright waiver (CC0 1.0 Universal)
T:Creative Commons copyright waiver (CC0 1.0 Universal)
C:Edward Elgar
Z:Simon Wastell
Z:Creative Commons copyright waiver (CC0 1.0 Universal)
%%score 1 { 2 | 3 }
L:1/8
M:4/4
K:Bb
V:1 treble nm="Voice"
V:2 treble nm="Piano"
V:3 bass 
V:1
 z8 | z8 |"^." z8 | z8 | z8 |"^affrettando" D2 D D E!<(! E3 | G3!<)! z z4 | z8 | %8
w: |||||Like to the da- mask|||
w: |||||Gleich wie der ro- ten|||
 c3 c !breath!B2!p! B2 | z8 | z8 | z8 | z8 | z8 | z8 | z8 | z8 | z8 | z8 | z8 | z8 | z8 | z8 | z8 | %24
w: on a tree; Or||||||||||||||||
w: Zwei- ge lacht, Gleich||||||||||||||||
 z8 | z8 | z8 | z8 | z8 | z8 | z8 | z8 | z8 | z8 | z8 | z8 | z8 ||[M:2/4] z4 ||[M:4/4] z8 | z8 | %40
w: ||||||||||||||||
w: ||||||||||||||||
 z8 | z8 | z8 | z8 | z8 | z8 | z8 | z8 | z8 | z8 | z8 | z8 | z8 | z8 | z8 | z8 | z8 | z8 | z8 | %59
w: |||||||||||||||||||
w: |||||||||||||||||||
 z8 | z8 | z8 | z8 | z8 | z8 | z8 | z8 | z8 | z8 | z8 | z8 | z8 | !fermata!z8 |] %73
w: ||||||||||||||
w: ||||||||||||||
V:2
 [gbg']2 z2 z4 | z8 | G z/ .D/ !>![B,G]!>![DA] ([GB][Bd]) ([ce]>[eg]) | z8 | z8 | %5
 [G,B,D][G,B,D][G,B,D][G,B,D] [G,B,D][G,B,D][G,B,D][G,B,D] | z8 | z8 | %8
!>(! [D^Fc][DFc][DFc][DFc] [DGB][DGB]!>)!!p! [DGB][DGB] | z8 | z8 | z8 | z8 | z8 | z8 | z8 | z8 | %17
 z8 | z8 | z8 | z8 | z8 | z8 | z8 | z8 | z8 | z8 | z8 | z8 | z8 | z8 | z8 | z8 | z8 | z8 | z8 | %36
 z8 ||[M:2/4] z4 ||[M:4/4] z8 | z8 | z8 | z8 | z8 | z8 | z8 | z8 | z8 | z8 | z8 | z8 | z8 | z8 | %52
 z8 | z8 | z8 | z8 | z8 | z8 | z8 | z8 | z8 | z8 | z8 | z8 | z8 | z8 | z8 | z8 | z8 | z8 | z8 | %71
 z8 | z8 |] %73
V:3
 .[G,,,G,,].[B,,,B,,].[A,,,A,,].[C,,C,] .[B,,,B,,].[D,,D,].[E,,E,].[^F,,^F,] | z8 | %2
 G, z/ .D,/ !>![B,,G,]!>![D,A,] [G,B,] z [C,G,C]2 | z8 |!ped! !wedge![G,,,G,,]2 z2 z4!ped-up! | %5
"_marcato"{/G,,} !>!D,4{/G,,} !>!E,4 | z8 | z8 |{/D,} !>!C4{/G,} !>!B,2 z2 | z8 | z8 | z8 | z8 | %13
 z8 | z8 | z8 | z8 | z8 | z8 | z8 | z8 | z8 | z8 | z8 | z8 | z8 | z8 | z8 | z8 | z8 | z8 | z8 | %32
 z8 | z8 | z8 | z8 | z8 ||[M:2/4] z4 ||[M:4/4] z8 | z8 | z8 | z8 | z8 | z8 | z8 | z8 | z8 | z8 | %48
 z8 | z8 | z8 | z8 | z8 | z8 | z8 | z8 | z8 | z8 | z8 | z8 | z8 | z8 | z8 | z8 | z8 | z8 | z8 | %67
 z8 | z8 | z8 | z8 | z8 | z8 |] %73

